app/images/markers/numbered/8.svg

<svg height="46" viewBox="0 0 40 46" width="40" xmlns="http://www.w3.org/2000/svg"><g fill="none" fill-rule="evenodd"><path d="m20 46.037c1.732 0 3.412-6.257 5.015-6.67 8.618-2.227 14.985-10.054 14.985-19.367 0-11.046-8.954-20-20-20s-20 8.954-20 20c0 9.318 6.372 17.147 14.996 19.37 1.6.41 3.276 6.667 5.004 6.667z" fill="#000" fill-rule="nonzero"/><path d="m20 46.037c1.732 0 3.412-6.257 5.015-6.67 8.618-2.227 14.985-10.054 14.985-19.367 0-11.046-8.954-20-20-20s-20 8.954-20 20c0 9.318 6.372 17.147 14.996 19.37 1.6.41 3.276 6.667 5.004 6.667z" fill="#00a862"/><g transform="translate(11 8)"><path d="m17.688 2.35c-.108-.46-.587-1.65-1.5-1.65h-14.378c-.912 0-1.39 1.19-1.503 1.682l-.295 1.634c-.033.188.018.38.14.527.122.146.302.23.493.23h.824l1.158 16.44c.06.962.863 1.715 1.83 1.715h9.09c.967 0 1.77-.753 1.83-1.71l1.156-16.445h.826c.192 0 .372-.084.494-.23s.173-.34.14-.527l-.302-1.666z" fill="#fff" fill-rule="nonzero"/><path d="m7.32743165 11.9663086c-.90560349-.5966827-1.35839844-1.3160765-1.35839844-2.15820313 0-.72786822.28564168-1.31713642.8569336-1.76782227.57129191-.45068584 1.32030786-.67602539 2.24707031-.67602539.87174915 0 1.56892638.19254365 2.09155278.57763672.5226263.38509307.7839355.89924809.7839355 1.54248047 0 .8294312-.5289661 1.6144169-1.5869141 2.3549805 1.3372463.6982456 2.0058594 1.5763293 2.0058594 2.6342773 0 .8251995-.3258431 1.4916967-.9775391 1.9995117-.6516959.5078151-1.50650508.7617188-2.56445308.7617188-1.01139828 0-1.82706395-.2327451-2.44702148-.6982422s-.92993164-1.0790978-.92993164-1.8408203c0-1.1044977.62629582-2.0143194 1.87890625-2.7294922zm2.05664062-.6601563c.62630523-.486656.93945313-1.0071586.93945313-1.56152339 0-.36393412-.1290677-.65486545-.38720703-.87280274-.25813931-.21793729-.59879346-.32690429-1.02197266-.32690429-.39355665 0-.71199422.09521389-.95532226.28564453s-.36499024.44010262-.36499024.74902343c0 .30468903.12060426.57234586.36181641.80297856.24121214.2306326.7172816.5384909 1.42822265.9235839zm-1.12988281 1.2885743c-.68131851.5670601-1.02197265 1.1658497-1.02197265 1.7963867 0 .4908879.17032707.8950179.51098632 1.2124023.34065926.3173844.7733535.4760742 1.29809571.4760742.46126532 0 .84741055-.1248359 1.15844726-.3745117.3110367-.2496757.4665527-.5607077.4665527-.9331054 0-.3216162-.1047352-.5966786-.3142089-.8251954-.2094738-.2285167-.61677762-.5141584-1.22192388-.8569335z" fill="#4a4a4a"/></g></g></svg>

<?xml version="1.0" encoding="UTF-8"?>
<svg width="40px" height="46px" viewBox="0 0 40 46" version="1.1" xmlns="http://www.w3.org/2000/svg" xmlns:xlink="http://www.w3.org/1999/xlink">
    <!-- Generator: Sketch 47.1 (45422) - http://www.bohemiancoding.com/sketch -->
    <title>starbucks-marker</title>
    <desc>Created with Sketch.</desc>
    <defs></defs>
    <g id="Page-1" stroke="none" stroke-width="1" fill="none" fill-rule="evenodd">
        <g id="starbucks-marker">
            <g id="Group">
                <g id="b-link">
                    <g id="b">
                        <g id="path-1-link" fill-rule="nonzero" fill="#000000">
                            <path d="M20,46.037 C21.732,46.037 23.412,39.78 25.015,39.367 C33.633,37.14 40,29.313 40,20 C40,8.954 31.046,0 20,0 C8.954,0 0,8.954 0,20 C0,29.318 6.372,37.147 14.996,39.37 C16.596,39.78 18.272,46.037 20,46.037 Z" id="path-1"></path>
                        </g>
                        <g id="path-1-link" fill="#00A862">
                            <path d="M20,46.037 C21.732,46.037 23.412,39.78 25.015,39.367 C33.633,37.14 40,29.313 40,20 C40,8.954 31.046,0 20,0 C8.954,0 0,8.954 0,20 C0,29.318 6.372,37.147 14.996,39.37 C16.596,39.78 18.272,46.037 20,46.037 Z" id="path-1"></path>
                        </g>
                    </g>
                </g>
            </g>
            <g id="Group" transform="translate(11.000000, 8.000000)">
                <g id="d-link">
                    <path d="M17.688,2.35 C17.58,1.89 17.101,0.7 16.188,0.7 L1.81,0.7 C0.898,0.7 0.42,1.89 0.307,2.382 L0.012,4.016 C-0.021,4.204 0.03,4.396 0.152,4.543 C0.274,4.689 0.454,4.773 0.645,4.773 L1.469,4.773 L2.627,21.213 C2.687,22.175 3.49,22.928 4.457,22.928 L13.547,22.928 C14.514,22.928 15.317,22.175 15.377,21.218 L16.533,4.773 L17.359,4.773 C17.551,4.773 17.731,4.689 17.853,4.543 C17.975,4.397 18.026,4.203 17.993,4.016 L17.691,2.35 L17.688,2.35 Z" id="d" fill="#FFFFFF" fill-rule="nonzero"></path>
                    <path d="M7.32743165,11.9663086 C6.42182816,11.3696259 5.96903321,10.6502321 5.96903321,9.80810547 C5.96903321,9.08023725 6.25467489,8.49096905 6.82596681,8.0402832 C7.39725872,7.58959736 8.14627467,7.36425781 9.07303712,7.36425781 C9.94478627,7.36425781 10.6419635,7.55680146 11.1645899,7.94189453 C11.6872162,8.3269876 11.9485254,8.84114262 11.9485254,9.484375 C11.9485254,10.3138062 11.4195593,11.0987919 10.3616113,11.8393555 C11.6988576,12.5376011 12.3674707,13.4156848 12.3674707,14.4736328 C12.3674707,15.2988323 12.0416276,15.9653295 11.3899316,16.4731445 C10.7382357,16.9809596 9.88342652,17.2348633 8.82547852,17.2348633 C7.81408024,17.2348633 6.99841457,17.0021182 6.37845704,16.5366211 C5.75849951,16.071124 5.4485254,15.4575233 5.4485254,14.6958008 C5.4485254,13.5913031 6.07482122,12.6814814 7.32743165,11.9663086 Z M9.38407227,11.3061523 C10.0103775,10.8194963 10.3235254,10.2989937 10.3235254,9.74462891 C10.3235254,9.38069479 10.1944577,9.08976346 9.93631837,8.87182617 C9.67817906,8.65388888 9.33752491,8.54492188 8.91434571,8.54492188 C8.52078906,8.54492188 8.20235149,8.64013577 7.95902345,8.83056641 C7.71569541,9.02099705 7.59403321,9.27066903 7.59403321,9.57958984 C7.59403321,9.88427887 7.71463747,10.1519357 7.95584962,10.3825684 C8.19706176,10.613201 8.67313122,10.9210593 9.38407227,11.3061523 Z M8.25418946,12.5947266 C7.57287095,13.1617867 7.23221681,13.7605763 7.23221681,14.3911133 C7.23221681,14.8820012 7.40254388,15.2861312 7.74320313,15.6035156 C8.08386239,15.9209 8.51655663,16.0795898 9.04129884,16.0795898 C9.50256416,16.0795898 9.88870939,15.9547539 10.1997461,15.7050781 C10.5107828,15.4554024 10.6662988,15.1443704 10.6662988,14.7719727 C10.6662988,14.4503565 10.5615636,14.1752941 10.3520899,13.9467773 C10.1426161,13.7182606 9.73531228,13.4326189 9.13016602,13.0898438 L8.25418946,12.5947266 Z" id="8" fill="#4A4A4A"></path>
                </g>
            </g>
        </g>
    </g>
</svg>
